!!!!SEGMENT: pl-cz--i-7_czajkowski-konstanty--pastorella.krn
!!!cenid: 18xx:704
!!!COM: Czajkowski, Konstanty
!!!COM-rismID: pe30085913
!!!CDT: 1859-1930
!!!CNT: Polish
!!!OTL: Pastorella
!!!PDT:
!!!AGN:
!!!SMS-siglum: PL-CZ
!!!SMS-shelfmark: I-7
!!!SMS-shelfwork: W
!!!SMS-variant: Canto Primo. PL-CZ I 7: 003, Canto Secondo PL-CZ I 7: 005
!!!SMS-altvar: Canto 1mo: PL-CZ I 7: 007-008, Canto Secundo. PL-CZ I 7: 009-010
!!!NIFC-rismSourceID: 300000092
!!!NIFC-islandoraID: pl-cz:31808
!!!URL-pdf-islandora: https://repozytorium.nifc.pl/islandora/object/pl-cz%3A31808/datastream/PDF/view
!!!URL-scan:
!!!ONB-nifc:
!!!AIN: 1 bass 2 clrno 2 flt 2 soprn 1 timpa 2 violn
!!!key: D
**kern	**kern	**kern	**kern	**text	**kern	**text	**kern	**text	**kern	**kern	**kern	**kern	**kern
*part11	*part10	*part9	*part8	*part8	*part7	*part7	*part6	*part6	*part5	*part4	*part3	*part2	*part1
*group6	*group5	*group5	*group4	*group4	*group4	*group4	*group4	*group4	*group3	*group2	*group2	*group1	*group1
*staff11	*staff10	*staff9	*staff8	*staff8	*staff7	*staff7	*staff6	*staff6	*staff5	*staff4	*staff3	*staff2	*staff1
*I"Baſso pro Organo.	*I"Violino Secondo.	*I"Violino Primo.	*I"Baſso Vocali.	*	*I"Canto Secondo.	*	*I"Canto Primo.	*	*I"Tympano	*I"Clarino Secondo. in D.	*I"Clarino Primo in D.	*I"Flauto v: Oboe Secondo.	*I"Flauto vel Oboe Primo.
*I'b	*I'vl 2	*I'vl 1	*I'B	*	*I'S 2	*	*I'S 1	*	*I'timp	*I'clno 2 in D	*I'clno 1 in D	*I'fl vel ob 2	*I'fl vel ob 1
*I	*Ivioln	*Ivioln	*Ibass	*	*Isoprn	*	*Isoprn	*	*Itimpa	*Iclrno	*Iclrno	*Iflt	*Iflt
*ICstr	*ICstr	*ICstr	*ICvox	*	*ICvox	*	*ICvox	*	*ICidio	*ICbras	*ICbras	*ICww	*ICww
*IGcont	*	*	*	*	*	*	*	*	*	*	*	*	*
*clefF4	*clefG2	*clefG2	*clefF4	*	*clefC1	*	*clefC1	*	*clefF4	*clefG2	*clefG2	*clefG2	*clefG2
*	*	*	*	*	*	*	*	*	*ITrd6c10	*ITrd-1c-2	*ITrd-1c-2	*	*
*k[f#c#]	*k[f#c#]	*k[f#c#]	*k[f#c#]	*	*k[c#f#]	*	*k[f#c#]	*	*k[f#c#]	*k[f#c#]	*k[f#c#g#d#]	*k[f#c#]	*k[f#c#]
*D:	*D:	*D:	*D:	*	*D:	*	*D:	*	*D:	*D:	*D:	*D:	*D:
*M3/4	*M3/4	*M3/4	*M3/4	*	*M3/4	*	*M3/4	*	*M3/4	*M3/4	*M3/4	*M3/4	*M3/4
=1	=1	=1	=1	=1	=1	=1	=1	=1	=1	=1	=1	=1	=1
*2\right	*2\right	*2\right	*2\right	*2\right	*2\right	*2\right	*2\right	*2\right	*2\right	*2\right	*2\right	*2\right	*2\right
!!LO:TX:a:t=P:problem:4,8,16\middle; 4,8,16/left:global
!	!	!	!	!	!LO:TX:t=P:problem:znaki: cc# zamiast c#	!	!LO:TX:t=P:problem:znaki: cc# zamiast c#	!	!	!	!	!	!
!LO:TX:B:t=adagio	!LO:TX:B:t=adagio.	!LO:TX:B:t=adagio.	!LO:TX:B:t=adagio.	!	!LO:TX:B:t=adagio	!	!LO:TX:B:t=Adagio.	!	!LO:TX:B:t=Adagio	!LO:TX:B:t=Adagio	!LO:TX:B:t=Adagio.	!LO:TX:B:t=Adagio.	!LO:TX:B:t=adagio
!	!	!	!	!	!	!	!	!	!LO:TX:t=Gloria Tacet	!	!LO:SIC:v:s=4.ddd\	!	!
4.D\	4.dd\	4.ff#\	4.d\	Glo-	4.dd\	Glo-	4.ff#\	Glo-	2.ryy	4.ff#\	4.ddd#\	4.dd\	4.ff#\
!	!	!	!	!	!	!	!	!	!	!	!LO:SIC:v:s=8ddd\	!	!
8D\	8dd\	8ff#\	8d\	-ri-	8dd\	-ri-	8ff#\	-ri-	.	8ff#\	8ddd#\	8dd\	8ff#\
!	!	!	!	!	!	!	!	!	!	!	!LO:SIC:v:s=4ddd\	!	!
4D\	4dd\	4ff#\	4d\	-a	4dd\	-a	4ff#\	-a	.	4ff#\	4ddd#\	4dd\	4ff#\
=2	=2	=2	=2	=2	=2	=2	=2	=2	=2	=2	=2	=2	=2
!LO:TX:a:t=2	!	!	!LO:TX:a:t=2	!	!	!	!	!	!	!	!	!	!
!LO:N:vis=0	!	!	!LO:N:vis=0	!	!	!	!	!	!	!	!	!	!
1.r	2.f#/	2.a/	1.r	.	4.ff#\	Glo-	4.aa\	Glo-	2.ryy	2.a/	2.a/	2.a/	2.aa\
.	.	.	.	.	8ee\	-ri-	8gg\	-ri-	.	.	.	.	.
.	.	.	.	.	4dd\	-a	4ff#\	-a	.	.	.	.	.
=3	=3	=3	=3	=3	=3	=3	=3	=3	=3	=3	=3	=3	=3
*	*	*	*	*	*	*	*	*ij	*	*	*	*	*
.	2.f#/	2.a/	.	.	4.ff#\	Glo-	4.aa\	Glo-	2.ryy	2.A/	2.a/	2.a/	2.aa\
.	.	.	.	.	8ee\	-ri-	8gg\	-ri-	.	.	.	.	.
.	.	.	.	.	4dd\	-a	4ff#\	-a	.	.	.	.	.
*	*	*	*	*	*	*	*	*Xij	*	*	*	*	*
=4	=4	=4	=4	=4	=4	=4	=4	=4	=4	=4	=4	=4	=4
8A\L	8cc#\L	8ee\L	8A\	in	8cc#\	in	8ee\	in	2.ryy	8a/L	8ee\L	8cc#\L	8ee\L
8d\	8dd\	8ff#\	8d\	ex-	8dd\	ex-	8ff#\	ex-	.	8dd/	8ff#\	8dd\	8ff#\
!	!	!	!	!	!	!	!	!	!	!	!LO:SIC:v:s=8gg\	!	!
8A\	8ee\	8gg\	8A\	-cel-	8ee\	-cel-	8gg\	-cel-	.	8ee/	8gg#\	8ee\	8gg\
8d\	8dd\	8ff#\	8d\	-sis	8dd\	-sis	8ff#\	-sis	.	8dd/	8ff#\	8dd\	8ff#\
8A\	8cc#\	8ee\	8A\	De-	8cc#\	De-	8ee\	De-	.	8a/	8ee\	8cc#\	8ee\
!	!	!	!	!	!	!	!	!	!	!	!LO:SIC:v:s=8dd\J	!	!
8D\J	8b\J	8dd\J	8F#\	-o	8b\	-o	8dd\	-o	.	8f#/J	8dd#\J	8b\J	8dd\J
=5	=5	=5	=5	=5	=5	=5	=5	=5	=5	=5	=5	=5	=5
!LO:TX:a:t=2	!	!	!LO:TX:a:t=2	!	!	!	!	!	!	!LO:TX:a:t=2	!LO:TX:a:t=2	!	!
!LO:N:vis=0	!	!	!LO:N:vis=0	!	!	!	!	!	!	!LO:N:vis=0	!LO:N:vis=0	!	!
1.r	2.f#/	2.dd\	1.r	.	2f#/	et	2dd\	et	2.ryy	1.r	1.r	2.f#/	2.dd\
.	.	.	.	.	4f#/	in	8ff#\L	in	.	.	.	.	.
.	.	.	.	.	.	.	8aa\J	.	.	.	.	.	.
=6	=6	=6	=6	=6	=6	=6	=6	=6	=6	=6	=6	=6	=6
.	2.cc#\	2.ee\	.	.	8ee\L	ter-	8gg\L	ter-	2.ryy	.	.	2.cc#\	2.ee\
.	.	.	.	.	8gg\J	.	8bb\J	.	.	.	.	.	.
.	.	.	.	.	2cc#\	-ra	2ee\	-ra	.	.	.	.	.
=7	=7	=7	=7	=7	=7	=7	=7	=7	=7	=7	=7	=7	=7
8D\L	8dd\L	8ff#\L	8D\	pax	8dd\	Pax	8ff#\	pax	2.ryy	8dd\L	8ff#\L	8dd\L	8ff#\L
8F#\	8ff#\	8aa\	8F#\	ho-	8ff#\	ho-	8aa\	ho-	.	8ff#\	8aa\	8ff#\	8aa\
!	!	!	!	!	!	!	!	!	!	!	!LO:SIC:v:s=8gg\	!	!
8E\	8ee\	8gg\	8E\	-mi-	8ee\	-mi-	8gg\	-mi-	.	8ee\	8gg#\	8ee\	8gg\
8D\J	8dd\J	8ff#\J	8D\	-ni-	8dd\	-ni-	8ff#\	-ni-	.	8dd\J	8ff#\J	8dd\J	8ff#\J
4AA/	4cc#\	4ee\	4A\	-bus	4cc#\	-bus	4ee\	-bus	.	4a/	4ee\	4cc#\	4ee\
=8	=8	=8	=8	=8	=8	=8	=8	=8	=8	=8	=8	=8	=8
8d\L	8dd\L	8ff#\L	8d\	bo-	8dd\	bo-	8ff#\	bo-	2.ryy	8dd\L	8ff#\L	8dd\L	8ff#\L
8A\	8cc#\	8ee\	8A\	-ne	8cc#\	-ne	8ee\	-ne	.	8a\	8ee\	8cc#\	8ee\
!	!	!	!	!	!LO:LB:g=original	!	!LO:LB:g=original	!	!	!	!LO:SIC:v:s=8gg\	!	!
8B\	8ee\	8gg\	8B\L	vo-	8ee\L	vo-	8gg\	vo-	.	8ee\	8gg#\	8ee\	8gg\
8A\	8dd\	8ff#\	8A\J	.	8dd\J	.	8ff#\	.	.	8dd\J	8ff#\	8dd\	8ff#\
8G\	8cc#\	8ee\	8G\L	-lun-	8cc#\L	-lun-	8ee\	-lun-	.	8a/L	8ee\	8cc#\	8ee\
!	!	!	!	!	!	!	!	!	!	!	!LO:SIC:v:s=8dd\J	!	!
8F#\J	8b\J	8dd\J	8F#\J	.	8b\J	.	8dd\	.	.	8f#/J	8dd#\J	8b\J	8dd\J
=9	=9	=9	=9	=9	=9	=9	=9	=9	=9	=9	=9	=9	=9
4E\	4e/	4cc#\	4E\	-ta-	4e/	-ta-	4cc#\	-ta-	2.ryy	4a/	4ee\	4e/	4cc#\
!	!	!	!	!	!	!	!	!	!	!	!LO:SIC:v:s=4dd\	!	!
4D\	4f#/	4dd\	4D\	-tis	4f#/	-tis	4dd\	-tis.	.	4f#/	4dd#\	4f#/	4dd\
4r	4r	4r	4r	.	4r	.	4r	.	.	4r	4r	4r	4r
!	!	!	!	!	!	!	!	!	!LO:LB:g=original	!	!	!	!
=10||	=10||	=10||	=10||	=10||	=10||	=10||	=10||	=10||	=10||	=10||	=10||	=10||	=10||
*M2/4	*M2/4	*M2/4	*M2/4	*	*M2/4	*	*M2/4	*	*M2/4	*M2/4	*M2/4	*M2/4	*M2/4
!	!	!	!	!	!	!	!	!	!	!	!LO:SIC:v:s=4d/	!	!
4D\	4d/	4d/	4D\	E-	4d/	E-	4d/	E-	4DD/	4d/	4d#/	4dd\	4dd\
4F#\	4f#/	4f#/	4F#\	-a-	4f#/	-a-	4f#/	-a-	4FF#/	4f#/	4f#/	4ff#\	4ff#\
=11	=11	=11	=11	=11	=11	=11	=11	=11	=11	=11	=11	=11	=11
2A\	2a/	2a/	2A\	-mus	2a\	-mus	2a\	-mus	4FF#/	2a/	2a/	2aa\	2aa\
.	.	.	.	.	.	.	.	.	4FF#/	.	.	.	.
=12	=12	=12	=12	=12	=12	=12	=12	=12	=12	=12	=12	=12	=12
!	!	!	!LO:TX:a:t=1.	!	!	!	!LO:SIC:v:l:s=in	!	!	!	!LO:TX:a:t=1.	!	!
2r	16dd\LL	16ff#\LL	2r	.	16dd\LL	in	16ff#\LL	i	2r	2r	2r	16dd\LL	16ff#\LL
.	16cc#\	16ee\	.	.	16cc#\JJ	.	16ee\JJ	.	.	.	.	16cc#\	16ee\
.	16dd\	16ff#\	.	.	16dd\LL	Be-	16ff#\LL	Be-	.	.	.	16dd\	16ff#\
.	16ee\JJ	16gg\JJ	.	.	16ee\JJ	.	16gg\JJ	.	.	.	.	16ee\JJ	16gg\JJ
.	8ff#\L	8aa\L	.	.	8ff#\L	-tle-	8aa\	-tle-	.	.	.	8ff#\L	8aa\L
.	8dd\J	8ff#\J	.	.	8dd\J	-iem	8ff#\	-iem	.	.	.	8dd\J	8ff#\J
!	!LO:LB:g=original	!	!	!	!	!	!	!	!	!	!	!LO:LB:g=original	!
=13	=13	=13	=13	=13	=13	=13	=13	=13	=13	=13	=13	=13	=13
8G\L	8g/L	8ee\L	8G\	e-	8g\	e-	8ee\	e-	8DD/L	8a/L	8ee\L	8g/L	8ee\L
8A\J	8a/J	8ff#\J	8A\	-a-	8a\	-a-	8ff#\	-a-	8FF#/J	8dd/J	8ff#\J	8a/J	8ff#\J
!	!	!	!	!	!	!	!	!	!	!	!LO:SIC:v:s=4dd\	!	!
4D\	4f#/	4dd\	4D\	-mus	4f#/	-mus	4dd\	-mus	4DD/	4f#/	4dd#\	4f#/	4dd\
!	!	!LO:LB:g=original	!	!	!	!	!	!	!	!LO:LB:g=original	!	!	!LO:LB:g=original
=14	=14	=14	=14	=14	=14	=14	=14	=14	=14	=14	=14	=14	=14
!	!	!	!LO:TX:a:t=1.	!	!	!	!	!	!	!LO:TX:a:t=1.	!LO:TX:a:t=1.	!	!
2r	16ee\LL	16gg\LL	2r	.	16ee\LL	hoc	16gg\LL	hoc	2r	2r	2r	16ee\LL	16gg\LL
.	16dd\	16ff#\	.	.	16dd\JJ	.	16ff#\JJ	.	.	.	.	16dd\	16ff#\
.	16ee\	16gg\	.	.	16ee\LL	ver-	16gg\LL	ver-	.	.	.	16ee\	16gg\
.	16ff#\JJ	16aa\JJ	.	.	16ff#\JJ	.	16aa\JJ	.	.	.	.	16ff#\JJ	16aa\JJ
.	8gg\L	8bb\L	.	.	8gg\	-bum	8bb\	-bum	.	.	.	8gg\L	8bb\L
.	8dd\J	8ff#\J	.	.	8dd\	vi-	8ff#\	vi-	.	.	.	8dd\J	8ff#\J
!	!	!	!LO:LB:g=original	!	!	!	!	!	!	!	!LO:LB:g=original	!	!
=15	=15	=15	=15	=15	=15	=15	=15	=15	=15	=15	=15	=15	=15
8G\L	8g/L	8ee\L	8G\	vi-	8g\	-de-	8ee\	-de-	8DD/L	8a/L	8ee\L	8g/L	8ee\L
8A\J	8a/J	8ff#\J	8A\	-de-	8a\	-a-	8ff#\	-a-	8FF#/J	8dd/J	8ff#\J	8a/J	8ff#\J
!	!	!	!	!	!	!	!	!	!	!	!LO:SIC:v:s=4dd\	!	!
4D\	4f#/	4dd\	8D\	-a-	4f#/	-mus	4dd\	-mus	4DD/	4f#/	4dd#\	4f#/	4dd\
.	.	.	8D\	-mus	.	.	.	.	.	.	.	.	.
!	!	!	!	!	!LO:LB:g=original	!	!	!	!	!	!	!	!
=16	=16	=16	=16	=16	=16	=16	=16	=16	=16	=16	=16	=16	=16
!	!	!	!	!	!	!	!	!	!LO:TX:a:t=4	!LO:TX:a:t=4	!LO:TX:a:t=4	!	!
!	!	!	!	!	!	!	!	!	!LO:N:vis=00	!LO:N:vis=00	!LO:N:vis=00	!	!
2AA/	8cc#\L	8ee\L	8A\	ne-	8cc#\	ne-	8ee\	ne-	0r	0r	0r	8cc#\L	8ee\L
.	8dd\	8ff#\	8A\	-o-	8dd\	-o-	8ff#\	-o-	.	.	.	8dd\	8ff#\
.	8a\	8cc#\	8A\	-na-	8a\	-na-	8cc#\	-na-	.	.	.	8a\	8cc#\
.	8b\J	8dd\J	8A\	-tum	8b\	-tum	8dd\	-tum	.	.	.	8b\J	8dd\J
!	!	!	!	!	!LO:LB:g=original	!	!LO:LB:g=original	!	!	!	!	!	!
=17	=17	=17	=17	=17	=17	=17	=17	=17	=17	=17	=17	=17	=17
2AA/	8cc#\L	8ee\L	8A\	Je-	8cc#\	Je-	8ee\	Je-	.	.	.	8cc#\L	8ee\L
.	8dd\J	8ff#\J	8A\	-su-	8dd\	-su-	8ff#\	-su-	.	.	.	8dd\J	8ff#\J
.	4cc#\	4ee\	4A\	-lum	4cc#\	-lum	4ee\	-lum	.	.	.	4cc#\	4ee\
=18	=18	=18	=18	=18	=18	=18	=18	=18	=18	=18	=18	=18	=18
2AA/	8cc#\L	8ee\L	8A\	Sal-	8cc#\	Sal-	8ee\	sal-	.	.	.	8cc#\L	8ee\L
.	8dd\	8ff#\	8A\	-va-	8dd\	-va-	8ff#\	-va-	.	.	.	8dd\	8ff#\
.	8a\	8cc#\	8A\	-to-	8a\	-to-	8cc#\	-to-	.	.	.	8a\	8cc#\
.	8b\J	8dd\J	8A\	-rem	8b\	-rem	8dd\	-rem	.	.	.	8b\J	8dd\J
=19	=19	=19	=19	=19	=19	=19	=19	=19	=19	=19	=19	=19	=19
2AA/	8cc#\L	8ee\L	8A\	ma-	8cc#\	ma-	8ee\	ma-	.	.	.	8cc#\L	8ee\L
.	8dd\J	8ff#\J	8A\	-xi-	8dd\	-xi-	8ff#\	-xi-	.	.	.	8dd\J	8ff#\J
.	4cc#\	4ee\	4A\	-mum	4cc#\	-mum	4ee\	-mum	.	.	.	4cc#\	4ee\
!LO:LB:g=original	!	!	!	!	!	!	!	!	!	!	!	!	!
=20	=20	=20	=20	=20	=20	=20	=20	=20	=20	=20	=20	=20	=20
!	!	!LO:TX:a:t=P:problem:mixed beam	!	!	!	!	!	!	!	!	!LO:SIC:v:s=8ddd\L	!	!
8d\L	8dd\L	8dd\L	8d\	to-	8dd\	to-	8dd\	to	8FF#/L	8ff#\L	8ddd#\L	8ff#\L	8ddd\L
8A\J	8a\J	8a/J	8A\	-to	8a\	-to	8a\	cor-	8DD/J	8ff#\J	8aa\J	8ff#\J	8aa\J
4B\	4b\	4b\	4B\	cor-	4b\	cor-	4b\	-de	4FF#/	4gg\	4bb\	4gg\	4bb\
=21	=21	=21	=21	=21	=21	=21	=21	=21	=21	=21	=21	=21	=21
!	!	!	!	!	!	!	!	!	!	!LO:TX:a:t=P:problem:mixed beam	!	!	!
8A\L	8a/L	8a/L	8A\	.	8a\L	-de	8a\L	sa-	4DD/	8ff#\L	8aa\L	8ff#\L	8aa\L
!	!	!	!	!	!	!	!	!	!	!	!LO:SIC:v:s=8gg\	!	!
8G\	8g/	8g/	8G\	-de	8g\J	.	8g\J	.	.	8ee\	8gg#\	8ee\	8gg\
8F#\	8f#/	8f#/	8F#\	sa-	8f#/	Sa-	8f#/	-lu-	4DD/	8dd\	8ff#\	8dd\	8ff#\
!	!	!	!	!	!	!	!	!	!	!	!LO:SIC:v:s=8dd\J	!	!LO:SIC:v:s=8dd\J
8D\J	8d/J	8d/J	8D\	-lu-	8d/	-lu-	8d/	-te-	.	8f#/J	8dd#\J	8a\J	8ee\J
=22	=22	=22	=22	=22	=22	=22	=22	=22	=22	=22	=22	=22	=22
!	!	!	!	!	!	!	!	!	!LO:SIC:v:s=4EE/	!	!	!	!
4AA/	4e/	4e/	4E\	-te-	4e/	-te-	4e/	.	4FF#/	4a/	4ee\	4a/	4ee\
!	!	!	!	!	!	!	!	!	!	!	!LO:SIC:v:s=4dd\	!	!
4D\	4d/	4d/	4D\	-mus.	4d/	-mus	4d/	-mus	4DD/	4f#/	4dd#\	4f#/	4dd\
=23	=23	=23	=23	=23	=23	=23	=23	=23	=23	=23	=23	=23	=23
*	*	*	*	*	*	*	*	*	*	*	*	*	*
!	!	!	!LO:TX:a:t=P:problem:t. 23-25 zapisane repetycją	!	!	!	!	!	!LO:TX:a:t=P:problem:t. 23-25 zapisane repetycją	!	!LO:SIC:v:s=8ddd\L	!	!
8d\L	8dd\L	8dd\L	8d\yy	to-	8dd\	to-	8dd\	to-	8FF#/Lyy	8ff#\L	8ddd#\L	8ff#\L	8ddd\L
8A\J	8a\J	8a\J	8A\yy	-to	8a\	-to	8a\	-to	8DD/Jyy	8ff#\J	8aa\J	8ff#\J	8aa\J
4B\	4b\	4b\	4B\yy	cor-	4b\	cor-	4b\	cor-	4FF#/yy	4gg\	4bb\	4gg\	4bb\
=24	=24	=24	=24	=24	=24	=24	=24	=24	=24	=24	=24	=24	=24
!	!	!	!	!	!	!	!	!	!	!LO:TX:a:t=P:problem:mixed beam	!	!	!
8A\L	8a/L	8a/L	8A\yy	.	8a\	.	8a\	.	4DD/yy	8ff#\L	8aa\L	8ff#\L	8aa\L
!	!	!	!	!	!	!	!	!	!	!	!LO:SIC:v:s=8gg\	!	!
8G\	8g/	8g/	8G\yy	-de	8g\	-de	8g\	-de	.	8ee\	8gg#\	8ee\	8gg\
8F#\	8f#/	8f#/	8F#\yy	sa-	8f#/	Sa-	8f#/	sa-	4DD/yy	8dd\	8ff#\	8dd\	8ff#\
!	!	!	!	!	!	!	!	!	!	!	!LO:SIC:v:s=8dd\J	!	!
8D\J	8d/J	8d/J	8D\yy	-lu-	8d/	-lu-	8d/	-lu-	.	8f#/J	8dd#\J	8a\J	8dd\J
=25	=25	=25	=25	=25	=25	=25	=25	=25	=25	=25	=25	=25	=25
4E\	4e/	4e/	4E\yy	-te-	4c#/	-te-	4e/	-te-	4FF#/yy	4a/	4ee\	4a/	4ee\
!	!	!	!	!	!LO:SIC:v:s=4A/	!	!	!	!	!	!LO:SIC:v:s=4dd\	!	!
4D\	4d/	4d/	4D\yy	-mus.	4B/	-mus.	4d/	-mus	4DD/yy	4f#/	4dd#\	4d/	4dd\
*	*	*	*	*	*	*	*	*	*	*	*	*	*
!	!LO:LB:g=original	!	!LO:LB:g=original	!	!LO:LB:g=original	!	!LO:LB:g=original	!	!	!	!	!LO:LB:g=original	!
=26||	=26||	=26||	=26||	=26||	=26||	=26||	=26||	=26||	=26||	=26||	=26||	=26||	=26||
*M3/8	*M3/8	*M3/8	*M3/8	*	*M3/8	*	*M3/8	*	*M3/8	*M3/8	*M3/8	*M3/8	*M3/8
!	!LO:TX:a:t=8	!	!	!	!	!	!	!	!LO:TX:a:t=Eamus.	!	!	!LO:TX:a:t=P:problem:powtórka krzyżyków	!
!	!LO:TX:a:t=P:problem:powtórka krzyżyków	!LO:TX:a:t=8	!LO:TX:a:t=P:problem:tekst stylizowany na ludowy, trudno ustalić ostateczną wersję, zostawiam tak jak w rkpsie (patrz np. "rużnych", "piszczałkah")	!	!LO:TX:a:t=72	!	!LO:TX:a:t=72.	!	!LO:TX:a:t=9	!LO:TX:a:t=9	!LO:TX:a:t=9	!LO:TX:a:t=34	!LO:TX:a:t=34
!	!LO:N:vis=00	!LO:N:vis=00	!	!	!LO:N:vis=00	!	!LO:N:vis=00	!	!LO:N:vis=00	!LO:N:vis=00	!LO:N:vis=00	!LO:N:vis=00	!LO:N:vis=00
8D\L	1.r	1.r	16D\	Za-	1.r	.	1.r	.	1.r	1.r	1.r	1.r	1.r
.	.	.	16F#\	-grai	.	.	.	.	.	.	.	.	.
8D\	.	.	16A\	za-	.	.	.	.	.	.	.	.	.
.	.	.	16G\	-gray	.	.	.	.	.	.	.	.	.
*	*	*	*	*ij	*	*	*	*	*	*	*	*	*
8D\J	.	.	16A\	za-	.	.	.	.	.	.	.	.	.
.	.	.	16F#\	-gray	.	.	.	.	.	.	.	.	.
*	*	*	*	*Xij	*	*	*	*	*	*	*	*	*
=27	=27	=27	=27	=27	=27	=27	=27	=27	=27	=27	=27	=27	=27
*tremolo	*	*	*	*	*	*	*	*	*	*	*	*	*
8D\L	.	.	(16F#\LL	ze	.	.	.	.	.	.	.	.	.
.	.	.	16G\JJ)	.	.	.	.	.	.	.	.	.	.
8D\	.	.	4A\	mu	.	.	.	.	.	.	.	.	.
8D\J	.	.	.	.	.	.	.	.	.	.	.	.	.
=28	=28	=28	=28	=28	=28	=28	=28	=28	=28	=28	=28	=28	=28
8D\L	.	.	(16F#\LL	w ruż-	.	.	.	.	.	.	.	.	.
.	.	.	16A\JJ)	.	.	.	.	.	.	.	.	.	.
8D\	.	.	8F#\L	-ne	.	.	.	.	.	.	.	.	.
8D\J	.	.	8D\J	.	.	.	.	.	.	.	.	.	.
=29	=29	=29	=29	=29	=29	=29	=29	=29	=29	=29	=29	=29	=29
8D\L	.	.	8E\	sztucz-	.	.	.	.	.	.	.	.	.
8D\	.	.	4D\	-ki	.	.	.	.	.	.	.	.	.
8D\J	.	.	.	.	.	.	.	.	.	.	.	.	.
=30	=30	=30	=30	=30	=30	=30	=30	=30	=30	=30	=30	=30	=30
!	!LO:N:vis=00	!LO:N:vis=00	!	!	!LO:N:vis=00	!	!LO:N:vis=00	!	!LO:N:vis=00	!LO:N:vis=00	!LO:N:vis=00	!LO:N:vis=00	!LO:N:vis=00
8DD/L	1.r	1.r	16F#\LL	to	1.r	.	1.r	.	1.r	1.r	1.r	1.r	1.r
.	.	.	16G\JJ	.	.	.	.	.	.	.	.	.	.
8DD/	.	.	4A\	w zy-	.	.	.	.	.	.	.	.	.
8DD/J	.	.	.	.	.	.	.	.	.	.	.	.	.
=31	=31	=31	=31	=31	=31	=31	=31	=31	=31	=31	=31	=31	=31
8DD/L	.	.	16F#\LL	-woł-	.	.	.	.	.	.	.	.	.
.	.	.	16G\JJ	.	.	.	.	.	.	.	.	.	.
8DD/	.	.	4A\	-ki	.	.	.	.	.	.	.	.	.
8DD/J	.	.	.	.	.	.	.	.	.	.	.	.	.
*Xtremolo	*	*	*	*	*	*	*	*	*	*	*	*	*
=32	=32	=32	=32	=32	=32	=32	=32	=32	=32	=32	=32	=32	=32
4.DD/	.	.	16F#\LL	to	.	.	.	.	.	.	.	.	.
.	.	.	16A\JJ	.	.	.	.	.	.	.	.	.	.
.	.	.	8F#\L	w mu	.	.	.	.	.	.	.	.	.
.	.	.	8D\J	.	.	.	.	.	.	.	.	.	.
=33	=33	=33	=33	=33	=33	=33	=33	=33	=33	=33	=33	=33	=33
4.DD/	.	.	8E\	sztu-	.	.	.	.	.	.	.	.	.
.	.	.	4D\	-czki	.	.	.	.	.	.	.	.	.
=34	=34	=34	=34	=34	=34	=34	=34	=34	=34	=34	=34	=34	=34
!	!	!	!LO:TX:a:t=14.	!	!LO:N:vis=00	!	!LO:N:vis=00	!	!	!	!	!	!
!	!	!	!LO:N:vis=00	!	!	!	!	!	!	!	!	!LO:N:vis=00	!LO:N:vis=00
4.r	32dd\LLL	32dd\LLL	1.r	.	1.r	.	1.r	.	4.r	4.r	4.r	1.r	1.r
.	32cc#\	32ee\	.	.	.	.	.	.	.	.	.	.	.
.	32dd\	32ff#\	.	.	.	.	.	.	.	.	.	.	.
.	32ee\JJJ	32gg\JJJ	.	.	.	.	.	.	.	.	.	.	.
.	16ff#\LL	16aa\LL	.	.	.	.	.	.	.	.	.	.	.
.	16ee\	16gg\	.	.	.	.	.	.	.	.	.	.	.
.	16ff#\	16aa\	.	.	.	.	.	.	.	.	.	.	.
.	16dd\JJ	16ff#\JJ	.	.	.	.	.	.	.	.	.	.	.
=35	=35	=35	=35	=35	=35	=35	=35	=35	=35	=35	=35	=35	=35
8D\	8ff#\	8aa\	.	.	.	.	.	.	8DD/L	8A/L	8a/L	.	.
8r	8r	8r	.	.	.	.	.	.	8DD/	8A/	8a/	.	.
8r	8r	8r	.	.	.	.	.	.	8DD/J	8A/J	8a/J	.	.
!	!	!LO:LB:g=original	!	!	!	!	!	!	!	!	!	!	!
=36	=36	=36	=36	=36	=36	=36	=36	=36	=36	=36	=36	=36	=36
!	!	!	!	!	!	!	!	!	!	!LO:TX:a:t=1.	!LO:TX:a:t=1.	!	!
4.r	32dd\LLL	32dd\LLL	.	.	.	.	.	.	4.r	4.r	4.r	.	.
.	32cc#\	32ee\	.	.	.	.	.	.	.	.	.	.	.
.	32dd\	32ff#\	.	.	.	.	.	.	.	.	.	.	.
.	32ee\JJJ	32gg\JJJ	.	.	.	.	.	.	.	.	.	.	.
.	16ff#\LL	16aa\LL	.	.	.	.	.	.	.	.	.	.	.
.	16ee\	16gg\	.	.	.	.	.	.	.	.	.	.	.
.	16ff#\	16aa\	.	.	.	.	.	.	.	.	.	.	.
.	16dd\JJ	16ff#\JJ	.	.	.	.	.	.	.	.	.	.	.
!LO:LB:g=original	!	!	!	!	!	!	!	!	!	!	!	!	!
=37	=37	=37	=37	=37	=37	=37	=37	=37	=37	=37	=37	=37	=37
8D\	8ff#\	8aa\	.	.	.	.	.	.	8DD/L	8A/L	8a/L	.	.
8r	8r	8r	.	.	.	.	.	.	8DD/	8A/	8a/	.	.
8r	8r	8r	.	.	.	.	.	.	8DD/J	8A/J	8a/J	.	.
=38	=38	=38	=38	=38	=38	=38	=38	=38	=38	=38	=38	=38	=38
*tremolo	*	*	*	*	*	*	*	*	*	*	*	*	*
!	!	!	!LO:N:vis=00	!	!LO:N:vis=00	!	!LO:N:vis=00	!	!	!	!	!LO:N:vis=00	!LO:N:vis=00
8D\L	16f#\LL	16dd\LL	1.r	.	1.r	.	1.r	.	8DD/	8A/	8a/	1.r	1.r
.	16dd\	16ff#\	.	.	.	.	.	.	.	.	.	.	.
8D\	16dd\	16ff#\	.	.	.	.	.	.	8r	8r	8r	.	.
.	16ff#\JJ	16aa\JJ	.	.	.	.	.	.	.	.	.	.	.
8D\J	8ee\	8gg\	.	.	.	.	.	.	8r	8r	8r	.	.
=39	=39	=39	=39	=39	=39	=39	=39	=39	=39	=39	=39	=39	=39
8AA/L	16ee\LL	16gg\LL	.	.	.	.	.	.	8DD/	8A/	8a/	.	.
.	16cc#\	16ee\	.	.	.	.	.	.	.	.	.	.	.
8AA/	16cc#\	16ee\	.	.	.	.	.	.	8r	8r	8r	.	.
.	16a\JJ	16cc#\	.	.	.	.	.	.	.	.	.	.	.
8AA/J	16a/LL	16cc#\	.	.	.	.	.	.	8r	8r	8r	.	.
.	16e/JJ	16a\JJ	.	.	.	.	.	.	.	.	.	.	.
!	!	!	!	!	!	!	!	!	!	!LO:LB:g=original	!	!	!
=40	=40	=40	=40	=40	=40	=40	=40	=40	=40	=40	=40	=40	=40
8D\L	16f#\LL	16dd\LL	.	.	.	.	.	.	8DD/	8A/	8a/	.	.
.	16dd\	16ff#\	.	.	.	.	.	.	.	.	.	.	.
8D\	16dd\	16ff#\	.	.	.	.	.	.	8r	8r	8r	.	.
.	16ff#\JJ	16aa\JJ	.	.	.	.	.	.	.	.	.	.	.
8D\J	8ee\	8gg\	.	.	.	.	.	.	8r	8r	8r	.	.
!	!	!	!	!	!	!	!	!	!	!	!LO:LB:g=original	!	!
=41	=41	=41	=41	=41	=41	=41	=41	=41	=41	=41	=41	=41	=41
8AA/L	16ee\LL	16gg\LL	.	.	.	.	.	.	8DD/	8A/	8a/	.	.
.	16cc#\	16ee\	.	.	.	.	.	.	.	.	.	.	.
8AA/	16cc#\	16ee\	.	.	.	.	.	.	8r	8r	8r	.	.
.	16a\JJ	16cc#\	.	.	.	.	.	.	.	.	.	.	.
8AA/J	16a/LL	16cc#\	.	.	.	.	.	.	8r	8r	8r	.	.
.	16e/JJ	16a\JJ	.	.	.	.	.	.	.	.	.	.	.
=42	=42	=42	=42	=42	=42	=42	=42	=42	=42	=42	=42	=42	=42
!	!	!	!LO:N:vis=00	!	!LO:N:vis=00	!	!LO:N:vis=00	!	!	!	!	!LO:N:vis=00	!LO:N:vis=00
8AA/L	16a/LL	16a\LL	1.r	.	1.r	.	1.r	.	8DD/	8A/	8a/	1.r	1.r
.	16g/	16b\	.	.	.	.	.	.	.	.	.	.	.
8AA/	16a/	16cc#\	.	.	.	.	.	.	8r	8r	8r	.	.
.	16b/	16dd\	.	.	.	.	.	.	.	.	.	.	.
8AA/J	16cc#/	16ee\	.	.	.	.	.	.	8r	8r	8r	.	.
.	16ee/JJ	16gg\JJ	.	.	.	.	.	.	.	.	.	.	.
*Xtremolo	*	*	*	*	*	*	*	*	*	*	*	*	*
=43	=43	=43	=43	=43	=43	=43	=43	=43	=43	=43	=43	=43	=43
16F#\LL	16dd\LL	16ff#\LL	.	.	.	.	.	.	8r	8r	8r	.	.
16C#\JJ	16a\JJ	16cc#\JJ	.	.	.	.	.	.	.	.	.	.	.
4D\	4f#/	4dd\	.	.	.	.	.	.	8r	8r	8r	.	.
!	!	!	!	!	!	!	!	!	!	!	!LO:SIC:v:s=8dd\	!	!
.	.	.	.	.	.	.	.	.	8DD/	8dd\	8dd#\	.	.
=44	=44	=44	=44	=44	=44	=44	=44	=44	=44	=44	=44	=44	=44
8D\	16ff#\LL	16aa\LL	.	.	.	.	.	.	4FF#\	16ff#\LL	16aa\LL	.	.
!	!	!	!	!	!	!	!	!	!	!	!LO:SIC:v:s=16gg\J	!	!
.	16ee\	16gg\	.	.	.	.	.	.	.	16ee\J	16gg#\J	.	.
8r	16dd\	16ff#\	.	.	.	.	.	.	.	8dd\J	8ff#\J	.	.
.	16ee\JJ	16gg\JJ	.	.	.	.	.	.	.	.	.	.	.
8r	8ff#\	8aa\	.	.	.	.	.	.	8r	8r	8r	.	.
!	!LO:LB:g=original	!	!	!	!	!	!	!	!	!	!	!	!
=45	=45	=45	=45	=45	=45	=45	=45	=45	=45	=45	=45	=45	=45
!	!	!	!	!	!	!	!	!	!	!	!LO:SIC:v:s=16gg\LL	!	!
8AA/	16ee\LL	16gg\LL	.	.	.	.	.	.	4DD/	16ee\LL	16gg#\LL	.	.
.	16dd\	16ff#\	.	.	.	.	.	.	.	16dd\J	16ff#\J	.	.
8r	16cc#\	16ee\	.	.	.	.	.	.	.	8a\J	8ee\J	.	.
.	16dd\JJ	16ff#\JJ	.	.	.	.	.	.	.	.	.	.	.
8r	8ee\	8gg\	.	.	.	.	.	.	8r	8r	8r	.	.
=46	=46	=46	=46	=46	=46	=46	=46	=46	=46	=46	=46	=46	=46
!	!	!	!LO:N:vis=0	!	!LO:N:vis=00	!	!LO:N:vis=00	!	!	!	!	!LO:N:vis=00	!LO:N:vis=00
16F#\LL	16dd\LL	16ff#\LL	2.r	.	1.r	.	1.r	.	8r	8r	8r	1.r	1.r
16E\	16cc#\	16ee\	.	.	.	.	.	.	.	.	.	.	.
16D\	16b\	16dd\	.	.	.	.	.	.	8r	8r	8r	.	.
16C#\	16a\	16cc#\	.	.	.	.	.	.	.	.	.	.	.
16E\	16cc#\	16ee\	.	.	.	.	.	.	8FF#\	16a/LL	16ee\LL	.	.
!	!	!	!	!	!	!	!	!	!	!	!LO:SIC:v:s=16gg\JJ	!	!
16G\JJ	16ee\JJ	16gg\JJ	.	.	.	.	.	.	.	16ee/JJ	16gg#\JJ	.	.
!	!	!LO:LB:g=original	!	!	!	!	!	!	!	!	!	!	!
=47	=47	=47	=47	=47	=47	=47	=47	=47	=47	=47	=47	=47	=47
16F#\LL	16dd\LL	16ff#\LL	.	.	.	.	.	.	4DD/	8dd\	8ff#\	.	.
16C#\JJ	16a\JJ	16cc#\JJ	.	.	.	.	.	.	.	.	.	.	.
!	!	!	!	!	!	!	!	!	!	!	!LO:SIC:v:s=8dd\	!	!
4D\	4f#/	4dd\	.	.	.	.	.	.	.	4f#/	4dd#\	.	.
.	.	.	.	.	.	.	.	.	8r	.	.	.	.
=48	=48	=48	=48	=48	=48	=48	=48	=48	=48	=48	=48	=48	=48
!	!LO:TX:a:t=50.	!LO:TX:a:t=50.	!	!	!	!	!	!	!LO:TX:a:t=52.	!LO:TX:a:t=36.	!LO:TX:a:t=36	!	!
!	!LO:N:vis=00	!LO:N:vis=00	!	!	!	!	!	!	!LO:N:vis=00	!LO:N:vis=00	!LO:N:vis=00	!	!
4D\	1.r	1.r	4d\	Jo-	.	.	.	.	1.r	1.r	1.r	.	.
8D\	.	.	8A\	-zek	.	.	.	.	.	.	.	.	.
=49	=49	=49	=49	=49	=49	=49	=49	=49	=49	=49	=49	=49	=49
8AA/	.	.	8B\	z fran-	.	.	.	.	.	.	.	.	.
4D\	.	.	4A\	-kiem	.	.	.	.	.	.	.	.	.
!	!	!	!LO:LB:g=original	!	!	!	!	!	!	!	!	!	!
=50	=50	=50	=50	=50	=50	=50	=50	=50	=50	=50	=50	=50	=50
!	!	!	!	!	!LO:N:vis=00	!	!LO:N:vis=00	!	!	!	!	!LO:N:vis=00	!LO:N:vis=00
4D\	.	.	4d\	na-	1.r	.	1.r	.	.	.	.	1.r	1.r
8D\	.	.	8A\	-pi-	.	.	.	.	.	.	.	.	.
=51	=51	=51	=51	=51	=51	=51	=51	=51	=51	=51	=51	=51	=51
8AA/	.	.	8G\	-szczał-	.	.	.	.	.	.	.	.	.
4D\	.	.	4F#\	-kah	.	.	.	.	.	.	.	.	.
=52	=52	=52	=52	=52	=52	=52	=52	=52	=52	=52	=52	=52	=52
*tremolo	*	*	*	*	*	*	*	*	*	*	*	*	*
!	!LO:N:vis=00	!LO:N:vis=00	!	!	!	!	!	!	!LO:N:vis=00	!LO:N:vis=00	!LO:N:vis=00	!	!
8AA/L	1.r	1.r	8E\	bo	.	.	.	.	1.r	1.r	1.r	.	.
8AA/	.	.	8E\	się	.	.	.	.	.	.	.	.	.
8AA/J	.	.	8F#\	wy	.	.	.	.	.	.	.	.	.
=53	=53	=53	=53	=53	=53	=53	=53	=53	=53	=53	=53	=53	=53
8E\L	.	.	8G\	zna-	.	.	.	.	.	.	.	.	.
8E\	.	.	4G\	-cie	.	.	.	.	.	.	.	.	.
8E\J	.	.	.	.	.	.	.	.	.	.	.	.	.
*Xtremolo	*	*	*	*	*	*	*	*	*	*	*	*	*
!LO:LB:g=original	!	!	!	!	!	!	!	!	!	!	!	!	!
=54	=54	=54	=54	=54	=54	=54	=54	=54	=54	=54	=54	=54	=54
!	!	!	!	!	!LO:N:vis=00	!	!LO:N:vis=00	!	!	!	!	!LO:N:vis=00	!LO:N:vis=00
8F#\	.	.	8F#\	do-	1.r	.	1.r	.	.	.	.	1.r	1.r
8r	.	.	16D\LL	-brze	.	.	.	.	.	.	.	.	.
.	.	.	16E\JJ	.	.	.	.	.	.	.	.	.	.
8r	.	.	16F#\LL	na	.	.	.	.	.	.	.	.	.
.	.	.	16G\JJ	.	.	.	.	.	.	.	.	.	.
=55	=55	=55	=55	=55	=55	=55	=55	=55	=55	=55	=55	=55	=55
*tremolo	*	*	*	*	*	*	*	*	*	*	*	*	*
8AA/L	.	.	8A\	pał-	.	.	.	.	.	.	.	.	.
8AA/	.	.	4AA/	-kah	.	.	.	.	.	.	.	.	.
8AA/J	.	.	.	.	.	.	.	.	.	.	.	.	.
=56	=56	=56	=56	=56	=56	=56	=56	=56	=56	=56	=56	=56	=56
!	!LO:N:vis=00	!LO:N:vis=00	!	!	!	!	!	!	!LO:N:vis=00	!LO:N:vis=00	!LO:N:vis=00	!	!
8AA/L	1.r	1.r	8E\	bo	.	.	.	.	1.r	1.r	1.r	.	.
8AA/	.	.	8E\	się	.	.	.	.	.	.	.	.	.
8AA/J	.	.	8F#\	wy	.	.	.	.	.	.	.	.	.
*Xtremolo	*	*	*	*	*	*	*	*	*	*	*	*	*
=57	=57	=57	=57	=57	=57	=57	=57	=57	=57	=57	=57	=57	=57
8E\	.	.	8G\	zna-	.	.	.	.	.	.	.	.	.
4E\	.	.	4G\	-cie	.	.	.	.	.	.	.	.	.
=58	=58	=58	=58	=58	=58	=58	=58	=58	=58	=58	=58	=58	=58
!	!	!	!	!	!LO:N:vis=00	!	!LO:N:vis=00	!	!	!	!	!LO:N:vis=0	!LO:N:vis=0
16F#\LL	.	.	16F#\LL	do-	1.r	.	1.r	.	.	.	.	2.r	2.r
16A\JJ	.	.	16A\JJ	.	.	.	.	.	.	.	.	.	.
8F#\L	.	.	8F#\	-brze	.	.	.	.	.	.	.	.	.
8E\J	.	.	8E\	na	.	.	.	.	.	.	.	.	.
=59	=59	=59	=59	=59	=59	=59	=59	=59	=59	=59	=59	=59	=59
8D\	.	.	8D\	pał-	.	.	.	.	.	.	.	.	.
4D\	.	.	4D\	-kah	.	.	.	.	.	.	.	.	.
=60	=60	=60	=60	=60	=60	=60	=60	=60	=60	=60	=60	=60	=60
!	!	!	!LO:TX:a:t=16	!	!	!	!	!	!	!	!	!	!
!	!LO:N:vis=00	!LO:N:vis=00	!LO:N:vis=00	!	!	!	!	!	!LO:N:vis=00	!LO:N:vis=00	!LO:N:vis=00	!	!
8d\	1.r	1.r	1.r	.	.	.	.	.	1.r	1.r	1.r	8ff#\	8ddd\
4A\	.	.	.	.	.	.	.	.	.	.	.	4ff#\	4aa\
!	!	!	!	!	!	!	!	!	!	!	!	!	!LO:LB:g=original
=61	=61	=61	=61	=61	=61	=61	=61	=61	=61	=61	=61	=61	=61
8B\	.	.	.	.	.	.	.	.	.	.	.	8gg\	8bb\
4A\	.	.	.	.	.	.	.	.	.	.	.	4ff#\	4aa\
=62	=62	=62	=62	=62	=62	=62	=62	=62	=62	=62	=62	=62	=62
!	!	!	!	!	!LO:N:vis=00	!	!LO:N:vis=00	!	!	!	!	!	!
8d\L	.	.	.	.	1.r	.	1.r	.	.	.	.	8ff#\L	8ddd\L
8F#\	.	.	.	.	.	.	.	.	.	.	.	8dd\	8ff#\
8A\J	.	.	.	.	.	.	.	.	.	.	.	8ff#\J	8aa\J
=63	=63	=63	=63	=63	=63	=63	=63	=63	=63	=63	=63	=63	=63
8G\	.	.	.	.	.	.	.	.	.	.	.	8ee\	8gg\
!	!	!	!	!	!	!	!	!	!	!	!	!LO:SIC:v:s=4dd\	!
4F#\	.	.	.	.	.	.	.	.	.	.	.	4cc#\	4ff#\
=64	=64	=64	=64	=64	=64	=64	=64	=64	=64	=64	=64	=64	=64
!	!LO:N:vis=00	!LO:N:vis=00	!LO:N:vis=00	!	!	!	!	!	!LO:N:vis=00	!LO:N:vis=00	!LO:N:vis=00	!	!
16E\LL	1.r	1.r	1.r	.	.	.	.	.	1.r	1.r	1.r	(16cc#\LL	(16ee\LL
16F#\	.	.	.	.	.	.	.	.	.	.	.	16dd\	16ff#\
16G\	.	.	.	.	.	.	.	.	.	.	.	16ee\	16gg\
16F#\	.	.	.	.	.	.	.	.	.	.	.	16dd\	16ff#\
16G\	.	.	.	.	.	.	.	.	.	.	.	16ee\	16gg\
16F#\JJ	.	.	.	.	.	.	.	.	.	.	.	16dd\JJ)	16ff#\JJ)
=65	=65	=65	=65	=65	=65	=65	=65	=65	=65	=65	=65	=65	=65
16G\LL	.	.	.	.	.	.	.	.	.	.	.	16ee\LL	16gg\LL
16F#\JJ	.	.	.	.	.	.	.	.	.	.	.	16dd\JJ	16ff#\JJ
4A\	.	.	.	.	.	.	.	.	.	.	.	4ff#\	4aa\
=66	=66	=66	=66	=66	=66	=66	=66	=66	=66	=66	=66	=66	=66
!	!	!	!	!	!LO:N:vis=00	!	!LO:N:vis=00	!	!	!	!	!	!
16G\LL	.	.	.	.	1.r	.	1.r	.	.	.	.	16ee\LL	16gg\LL
16F#\JJ	.	.	.	.	.	.	.	.	.	.	.	16dd\JJ	16ff#\JJ
8E\L	.	.	.	.	.	.	.	.	.	.	.	8cc#\L	8ee\L
8G\J	.	.	.	.	.	.	.	.	.	.	.	8ee\J	8gg\J
=67	=67	=67	=67	=67	=67	=67	=67	=67	=67	=67	=67	=67	=67
16F#\LL	.	.	.	.	.	.	.	.	.	.	.	16dd\LL	16ff#\LL
16A\JJ	.	.	.	.	.	.	.	.	.	.	.	16ff#\JJ	16aa\JJ
4D\	.	.	.	.	.	.	.	.	.	.	.	4f#/	4dd\
=68	=68	=68	=68	=68	=68	=68	=68	=68	=68	=68	=68	=68	=68
!	!LO:N:vis=00	!LO:N:vis=00	!LO:N:vis=00	!	!	!	!	!	!LO:N:vis=00	!LO:N:vis=00	!LO:N:vis=00	!	!
8D\L	1.r	1.r	1.r	.	.	.	.	.	1.r	1.r	1.r	8f#/	16ddd\LL
.	.	.	.	.	.	.	.	.	.	.	.	.	16dd\JJ
8D\	.	.	.	.	.	.	.	.	.	.	.	4f#/	4dd\
8D\J	.	.	.	.	.	.	.	.	.	.	.	.	.
!LO:LB:g=original	!	!	!	!	!	!	!	!	!	!	!	!	!
=69	=69	=69	=69	=69	=69	=69	=69	=69	=69	=69	=69	=69	=69
8D\L	.	.	.	.	.	.	.	.	.	.	.	8f#/	16ddd\LL
.	.	.	.	.	.	.	.	.	.	.	.	.	16dd\JJ
8D\	.	.	.	.	.	.	.	.	.	.	.	4f#/	4dd\
8D\J	.	.	.	.	.	.	.	.	.	.	.	.	.
=70	=70	=70	=70	=70	=70	=70	=70	=70	=70	=70	=70	=70	=70
*tremolo	*	*	*	*	*	*	*	*	*	*	*	*	*
!	!	!	!	!	!	!	!LO:N:vis=00	!	!	!	!	!	!
8AA/L	.	.	.	.	1.r	.	1.r	.	.	.	.	16cc#\LL	16ee\LL
.	.	.	.	.	.	.	.	.	.	.	.	16b\JJ	16dd\JJ
8AA/	.	.	.	.	.	.	.	.	.	.	.	8cc#\L	8ee\L
8AA/J	.	.	.	.	.	.	.	.	.	.	.	8ee\J	8gg\J
*Xtremolo	*	*	*	*	*	*	*	*	*	*	*	*	*
=71	=71	=71	=71	=71	=71	=71	=71	=71	=71	=71	=71	=71	=71
16D/LL	.	.	.	.	.	.	.	.	.	.	.	16dd\LL	16ff#\LL
16AA/JJ	.	.	.	.	.	.	.	.	.	.	.	16a\JJ	16ee\JJ
4D/	.	.	.	.	.	.	.	.	.	.	.	4f#/	4dd\
=72	=72	=72	=72	=72	=72	=72	=72	=72	=72	=72	=72	=72	=72
*tremolo	*	*	*	*	*	*	*	*	*	*	*	*	*
!	!LO:N:vis=00	!LO:N:vis=00	!LO:N:vis=00	!	!	!	!	!	!LO:N:vis=00	!LO:N:vis=00	!LO:N:vis=00	!	!
8D\L	1.r	1.r	1.r	.	.	.	.	.	1.r	1.r	1.r	8ff#\L	8aa\L
8D\	.	.	.	.	.	.	.	.	.	.	.	8ff#\	8aa\
8D\J	.	.	.	.	.	.	.	.	.	.	.	16dd\L	16ff#\L
.	.	.	.	.	.	.	.	.	.	.	.	16a\JJ	16dd\JJ
!	!	!	!	!	!	!	!	!	!	!	!	!LO:LB:g=original	!
=73	=73	=73	=73	=73	=73	=73	=73	=73	=73	=73	=73	=73	=73
8D\L	.	.	.	.	.	.	.	.	.	.	.	8ff#\L	8aa\L
8D\	.	.	.	.	.	.	.	.	.	.	.	8ff#\	8aa\
8D\J	.	.	.	.	.	.	.	.	.	.	.	16dd\L	16ff#\L
.	.	.	.	.	.	.	.	.	.	.	.	16a\JJ	16dd\JJ
*Xtremolo	*	*	*	*	*	*	*	*	*	*	*	*	*
=74	=74	=74	=74	=74	=74	=74	=74	=74	=74	=74	=74	=74	=74
!	!	!	!	!	!LO:N:vis=00	!	!LO:N:vis=00	!	!	!	!	!	!
8E\L	.	.	.	.	1.r	.	1.r	.	.	.	.	8cc#\L	8ee\L
16E\L	.	.	.	.	.	.	.	.	.	.	.	16cc#\L	16ee\L
16D\	.	.	.	.	.	.	.	.	.	.	.	16b\	16dd\
16E\	.	.	.	.	.	.	.	.	.	.	.	16cc#\	16ee\
16G\JJ	.	.	.	.	.	.	.	.	.	.	.	16ee\JJ	16gg\JJ
!	!	!	!	!	!	!	!	!	!	!	!	!	!LO:LB:g=original
=75	=75	=75	=75	=75	=75	=75	=75	=75	=75	=75	=75	=75	=75
8F#\	.	.	.	.	.	.	.	.	.	.	.	8a/	16ff#\LL
.	.	.	.	.	.	.	.	.	.	.	.	.	16aa\JJ
4D\	.	.	.	.	.	.	.	.	.	.	.	4f#/	4dd\
=76	=76	=76	=76	=76	=76	=76	=76	=76	=76	=76	=76	=76	=76
*tremolo	*	*	*	*	*	*	*	*	*	*	*	*	*
!	!LO:N:vis=00	!LO:N:vis=00	!	!	!	!	!	!	!	!	!	!LO:TX:a:t=40	!LO:TX:a:t=40
!	!	!	!	!	!	!	!	!	!LO:N:vis=00	!LO:N:vis=00	!LO:N:vis=00	!LO:N:vis=00	!LO:N:vis=00
8D\L	1.r	1.r	4D\	nuż	.	.	.	.	1.r	1.r	1.r	1.r	1.r
8D\	.	.	.	.	.	.	.	.	.	.	.	.	.
8D\J	.	.	8F#\	ty	.	.	.	.	.	.	.	.	.
*Xtremolo	*	*	*	*	*	*	*	*	*	*	*	*	*
=77	=77	=77	=77	=77	=77	=77	=77	=77	=77	=77	=77	=77	=77
8E\	.	.	8E\	an-	.	.	.	.	.	.	.	.	.
4AA/	.	.	4AA/	-tku	.	.	.	.	.	.	.	.	.
!	!	!	!LO:LB:g=original	!	!	!	!	!	!	!	!	!	!
=78	=78	=78	=78	=78	=78	=78	=78	=78	=78	=78	=78	=78	=78
!	!	!	!	!	!LO:N:vis=00	!	!LO:N:vis=00	!	!	!	!	!	!
8D\L	.	.	8F#\	i	1.r	.	1.r	.	.	.	.	.	.
8F#\	.	.	4A\	ty	.	.	.	.	.	.	.	.	.
8D\J	.	.	.	.	.	.	.	.	.	.	.	.	.
=79	=79	=79	=79	=79	=79	=79	=79	=79	=79	=79	=79	=79	=79
!LO:TX:a:t=P:problem:mixed beam	!	!	!	!	!	!	!	!	!	!	!	!	!
8E\L	.	.	8G\	iaś-	.	.	.	.	.	.	.	.	.
8AA/	.	.	4E\	-ku	.	.	.	.	.	.	.	.	.
8AA/J	.	.	.	.	.	.	.	.	.	.	.	.	.
=80	=80	=80	=80	=80	=80	=80	=80	=80	=80	=80	=80	=80	=80
!	!LO:N:vis=00	!LO:N:vis=00	!	!	!	!	!	!	!LO:N:vis=00	!LO:N:vis=00	!LO:N:vis=00	!LO:N:vis=00	!LO:N:vis=00
8D\L	1.r	1.r	8F#\	w trom-	.	.	.	.	1.r	1.r	1.r	1.r	1.r
8F#\	.	.	8F#\	-by	.	.	.	.	.	.	.	.	.
8D\J	.	.	8G\	za-	.	.	.	.	.	.	.	.	.
=81	=81	=81	=81	=81	=81	=81	=81	=81	=81	=81	=81	=81	=81
!LO:TX:a:t=P:problem:mixed beam	!	!	!	!	!	!	!	!	!	!	!	!	!
8A\L	.	.	4A\	-grai-	.	.	.	.	.	.	.	.	.
8AA/	.	.	.	.	.	.	.	.	.	.	.	.	.
8AA/J	.	.	8A\	-cie	.	.	.	.	.	.	.	.	.
=82	=82	=82	=82	=82	=82	=82	=82	=82	=82	=82	=82	=82	=82
!	!	!	!	!	!LO:N:vis=00	!	!LO:N:vis=00	!	!	!	!	!	!
8D\L	.	.	16D\	za-	1.r	.	1.r	.	.	.	.	.	.
.	.	.	16D\	-grai-	.	.	.	.	.	.	.	.	.
8F#\	.	.	8F#\	-cie	.	.	.	.	.	.	.	.	.
8E\J	.	.	8E\	na	.	.	.	.	.	.	.	.	.
=83	=83	=83	=83	=83	=83	=83	=83	=83	=83	=83	=83	=83	=83
8D\L	.	.	8D\	gan-	.	.	.	.	.	.	.	.	.
8A\	.	.	8D\	-ku	.	.	.	.	.	.	.	.	.
8D\J	.	.	8r	.	.	.	.	.	.	.	.	.	.
=84	=84	=84	=84	=84	=84	=84	=84	=84	=84	=84	=84	=84	=84
*tremolo	*	*	*	*	*	*	*	*	*	*	*	*	*
!	!	!	!LO:TX:a:t=16.	!	!	!	!	!	!	!	!LO:SIC:v:s=8dd\L	!	!
!	!LO:N:vis=00	!LO:N:vis=00	!LO:N:vis=00	!	!	!	!	!	!LO:N:vis=00	!LO:TX:a:t=Solo	!LO:TX:a:t=Solo	!LO:N:vis=00	!LO:N:vis=00
8D\L	1.r	1.r	1.r	.	.	.	.	.	1.r	8f#/L	8dd#\L	1.r	1.r
!	!	!	!	!	!	!	!	!	!	!	!LO:SIC:v:s=16dd\L	!	!
8D\	.	.	.	.	.	.	.	.	.	16f#/L	16dd#\L	.	.
.	.	.	.	.	.	.	.	.	.	16a/	16ee\	.	.
!	!	!	!	!	!	!	!	!	!	!	!LO:SIC:v:s=16dd\	!	!
8D\J	.	.	.	.	.	.	.	.	.	16f#/	16dd#\	.	.
.	.	.	.	.	.	.	.	.	.	16a/JJ	16ee\JJ	.	.
=85	=85	=85	=85	=85	=85	=85	=85	=85	=85	=85	=85	=85	=85
8D\L	.	.	.	.	.	.	.	.	.	8dd\	8ff#\	.	.
!	!	!	!	!	!	!	!	!	!	!	!LO:SIC:v:s=4dd\	!	!
8D\	.	.	.	.	.	.	.	.	.	4f#/	4dd#\	.	.
8D\J	.	.	.	.	.	.	.	.	.	.	.	.	.
=86	=86	=86	=86	=86	=86	=86	=86	=86	=86	=86	=86	=86	=86
!	!	!	!	!	!LO:N:vis=00	!	!LO:N:vis=00	!	!	!	!	!	!
8AA/L	.	.	.	.	1.r	.	1.r	.	.	8a/L	8ee\L	.	.
8AA/	.	.	.	.	.	.	.	.	.	16a/L	16ee\L	.	.
.	.	.	.	.	.	.	.	.	.	16dd/	16ff#\	.	.
8AA/J	.	.	.	.	.	.	.	.	.	16a/	16ee\	.	.
.	.	.	.	.	.	.	.	.	.	16dd/JJ	16ff#\JJ	.	.
=87	=87	=87	=87	=87	=87	=87	=87	=87	=87	=87	=87	=87	=87
!	!	!	!	!	!	!	!	!	!	!	!LO:SIC:v:s=8gg\	!	!
8AA/L	.	.	.	.	.	.	.	.	.	8ee\	8gg#\	.	.
8AA/	.	.	.	.	.	.	.	.	.	4a/	4ee\	.	.
8AA/J	.	.	.	.	.	.	.	.	.	.	.	.	.
*Xtremolo	*	*	*	*	*	*	*	*	*	*	*	*	*
!	!	!	!	!	!	!	!	!	!	!LO:LB:g=original	!	!	!
=88	=88	=88	=88	=88	=88	=88	=88	=88	=88	=88	=88	=88	=88
!	!LO:N:vis=00	!LO:N:vis=00	!LO:N:vis=00	!	!	!	!	!	!LO:N:vis=00	!	!	!LO:N:vis=00	!LO:N:vis=00
4.D\	1.r	1.r	1.r	.	.	.	.	.	1.r	16dd\LL	16ff#\LL	1.r	1.r
!	!	!	!	!	!	!	!	!	!	!	!LO:SIC:v:s=16gg\	!	!
.	.	.	.	.	.	.	.	.	.	16ee\	16gg#\	.	.
.	.	.	.	.	.	.	.	.	.	16ff#\	16aa\	.	.
!	!	!	!	!	!	!	!	!	!	!	!LO:SIC:v:s=16gg\J	!	!
.	.	.	.	.	.	.	.	.	.	16ee\J	16gg#\J	.	.
.	.	.	.	.	.	.	.	.	.	8ff#\J	8aa\J	.	.
!LO:LB:g=original	!	!	!	!	!	!	!	!	!	!	!	!	!
=89	=89	=89	=89	=89	=89	=89	=89	=89	=89	=89	=89	=89	=89
!	!	!	!	!	!	!	!	!	!	!LO:TX:a:t=P:problem:mixed beam	!LO:SIC:v:s=16dd\LL	!	!
4.D\	.	.	.	.	.	.	.	.	.	16f#/LL	16dd#\LL	.	.
.	.	.	.	.	.	.	.	.	.	16dd\JJ	16ff#\J	.	.
.	.	.	.	.	.	.	.	.	.	8a/L	8ee\	.	.
!	!	!	!	!	!	!	!	!	!	!	!LO:SIC:v:s=8dd\J	!	!
.	.	.	.	.	.	.	.	.	.	8f#/J	8dd#\J	.	.
!	!	!	!	!	!	!	!	!	!	!	!LO:LB:g=original	!	!
=90	=90	=90	=90	=90	=90	=90	=90	=90	=90	=90	=90	=90	=90
!	!	!	!	!	!LO:N:vis=00	!	!LO:N:vis=00	!	!	!	!	!	!
4.D\	.	.	.	.	1.r	.	1.r	.	.	16dd\LL	16ff#\LL	.	.
!	!	!	!	!	!	!	!	!	!	!	!LO:SIC:v:s=16gg\	!	!
.	.	.	.	.	.	.	.	.	.	16ee\	16gg#\	.	.
.	.	.	.	.	.	.	.	.	.	16ff#\	16aa\	.	.
!	!	!	!	!	!	!	!	!	!	!	!LO:SIC:v:s=16gg\J	!	!
.	.	.	.	.	.	.	.	.	.	16ee\J	16gg#\J	.	.
.	.	.	.	.	.	.	.	.	.	8ff#\J	8aa\J	.	.
=91	=91	=91	=91	=91	=91	=91	=91	=91	=91	=91	=91	=91	=91
4.D\	.	.	.	.	.	.	.	.	.	8a/	16ee\LL	.	.
.	.	.	.	.	.	.	.	.	.	.	16ff#\JJ	.	.
!	!	!	!	!	!	!	!	!	!	!	!LO:SIC:v:s=4dd\	!	!
.	.	.	.	.	.	.	.	.	.	4f#/	4dd#\	.	.
=92	=92	=92	=92	=92	=92	=92	=92	=92	=92	=92	=92	=92	=92
!	!LO:N:vis=00	!LO:N:vis=00	!LO:N:vis=00	!	!	!	!	!	!LO:N:vis=00	!	!	!LO:N:vis=00	!LO:N:vis=00
8A\L	1.r	1.r	1.r	.	.	.	.	.	1.r	8ff#\L	8aa\L	1.r	1.r
8A\	.	.	.	.	.	.	.	.	.	8ff#\	8aa\	.	.
8A\J	.	.	.	.	.	.	.	.	.	8ff#\J	8aa\J	.	.
=93	=93	=93	=93	=93	=93	=93	=93	=93	=93	=93	=93	=93	=93
16A\LL	.	.	.	.	.	.	.	.	.	16ff#\LL	16aa\LL	.	.
16B\JJ	.	.	.	.	.	.	.	.	.	16gg\JJ	16bb\JJ	.	.
!LO:SIC:v:s=4E\	!	!	!	!	!	!	!	!	!	!	!	!	!
4D\	.	.	.	.	.	.	.	.	.	4a/	4ee\	.	.
=94	=94	=94	=94	=94	=94	=94	=94	=94	=94	=94	=94	=94	=94
!	!	!	!	!	!LO:N:vis=00	!	!LO:N:vis=00	!	!	!	!	!	!
8AA/L	.	.	.	.	1.r	.	1.r	.	.	8a/L	8ee\L	.	.
8AA/	.	.	.	.	.	.	.	.	.	8a/	8ee\	.	.
8AA/J	.	.	.	.	.	.	.	.	.	8a/J	16ee\L	.	.
!	!	!	!	!	!	!	!	!	!	!	!LO:SIC:v:s=16gg\JJ	!	!
.	.	.	.	.	.	.	.	.	.	.	16gg#\JJ	.	.
=95	=95	=95	=95	=95	=95	=95	=95	=95	=95	=95	=95	=95	=95
8AA/	.	.	.	.	.	.	.	.	.	8dd\	8ff#\	.	.
!	!	!	!	!	!	!	!	!	!	!	!LO:SIC:v:s=4dd\	!	!
4D\	.	.	.	.	.	.	.	.	.	4f#/	4dd#\	.	.
=96	=96	=96	=96	=96	=96	=96	=96	=96	=96	=96	=96	=96	=96
*tremolo	*	*	*	*	*	*	*	*	*	*	*	*	*
!	!LO:N:vis=0	!LO:N:vis=0	!LO:N:vis=00	!	!	!	!	!	!LO:N:vis=00	!	!LO:SIC:v:s=8dd\L	!LO:N:vis=00	!LO:N:vis=00
8D\L	2.r	2.r	1.r	.	.	.	.	.	1.r	8dd\L	8dd#\L	1.r	1.r
8D\	.	.	.	.	.	.	.	.	.	8dd\	8ff#\	.	.
8D\J	.	.	.	.	.	.	.	.	.	8dd\J	8aa\J	.	.
=97	=97	=97	=97	=97	=97	=97	=97	=97	=97	=97	=97	=97	=97
!	!	!	!	!	!	!	!	!	!	!	!LO:SIC:v:s=8ddd\L	!	!
8D\L	.	.	.	.	.	.	.	.	.	8ff#\L	8ddd#\L	.	.
!	!	!	!	!	!	!	!	!	!	!	!LO:SIC:v:s=16ddd\L	!	!
8D\	.	.	.	.	.	.	.	.	.	16ff#\L	16ddd#\L	.	.
!	!	!	!	!	!	!	!	!	!	!	!LO:SIC:v:s=16ddd\J	!	!
.	.	.	.	.	.	.	.	.	.	16ee\J	16ddd#\J	.	.
!	!	!	!	!	!	!	!	!	!	!	!LO:SIC:v:s=8ddd\J	!	!
8D\J	.	.	.	.	.	.	.	.	.	8ff#\J	8ddd#\J	.	.
*Xtremolo	*	*	*	*	*	*	*	*	*	*	*	*	*
=98	=98	=98	=98	=98	=98	=98	=98	=98	=98	=98	=98	=98	=98
!	!LO:TX:t=P:problem:brak 2 taktów (0r)	!LO:TX:t=P:problem:brak 2 taktów (0r)	!	!	!LO:TX:t=P:problem:brak 2 taktów (0r)	!	!LO:TX:t=P:problem:brak dwóch taktów (0r)	!	!	!	!	!	!
8D\L	4.ryy	4.ryy	.	.	4.ryy	.	4.ryy	.	.	16dd\LL	16ff#\LL	.	.
.	.	.	.	.	.	.	.	.	.	16ff#\J	16aa\J	.	.
!	!	!	!	!	!	!	!	!	!	!	!LO:SIC:v:s=8gg\	!	!
8F#\	.	.	.	.	.	.	.	.	.	8ee\	8gg#\	.	.
8D\J	.	.	.	.	.	.	.	.	.	8dd\J	8ff#\J	.	.
=99	=99	=99	=99	=99	=99	=99	=99	=99	=99	=99	=99	=99	=99
8A\L	4.ryy	4.ryy	.	.	4.ryy	.	4.ryy	.	.	8a/L	8ee\L	.	.
!	!	!	!	!	!	!	!	!	!	!	!LO:SIC:v:s=8dd\J	!	!
8D\J	.	.	.	.	.	.	.	.	.	8f#/J	8dd#\J	.	.
8r	.	.	.	.	.	.	.	.	.	8r	8r	.	.
!	!	!	!	!	!	!	!	!	!	!LO:LB:g=original	!	!	!
=100	=100	=100	=100	=100	=100	=100	=100	=100	=100	=100	=100	=100	=100
!!LO:TX:t=P:problem:zbędne pauzy w fl 1, 2
!	!	!	!	!	!	!	!	!	!	!	!	!LO:N:vis=00	!LO:N:vis=00
4.ryy	4.ryy	4.ryy	4.ryy	.	4.ryy	.	4.ryy	.	4.ryy	4.ryy	4.ryy	1.r	1.r
=101	=101	=101	=101	=101	=101	=101	=101	=101	=101	=101	=101	=101	=101
4.ryy	4.ryy	4.ryy	4.ryy	.	4.ryy	.	4.ryy	.	4.ryy	4.ryy	4.ryy	.	.
=102	=102	=102	=102	=102	=102	=102	=102	=102	=102	=102	=102	=102	=102
4.ryy	4.ryy	4.ryy	4.ryy	.	4.ryy	.	4.ryy	.	4.ryy	4.ryy	4.ryy	.	.
=103	=103	=103	=103	=103	=103	=103	=103	=103	=103	=103	=103	=103	=103
4.ryy	4.ryy	4.ryy	4.ryy	.	4.ryy	.	4.ryy	.	4.ryy	4.ryy	4.ryy	.	.
=104	=104	=104	=104	=104	=104	=104	=104	=104	=104	=104	=104	=104	=104
!	!	!	!	!	!	!	!	!	!	!	!	!LO:N:vis=00	!LO:N:vis=00
4.ryy	4.ryy	4.ryy	4.ryy	.	4.ryy	.	4.ryy	.	4.ryy	4.ryy	4.ryy	1.r	1.r
=105	=105	=105	=105	=105	=105	=105	=105	=105	=105	=105	=105	=105	=105
4.ryy	4.ryy	4.ryy	4.ryy	.	4.ryy	.	4.ryy	.	4.ryy	4.ryy	4.ryy	.	.
=106	=106	=106	=106	=106	=106	=106	=106	=106	=106	=106	=106	=106	=106
4.ryy	4.ryy	4.ryy	4.ryy	.	4.ryy	.	4.ryy	.	4.ryy	4.ryy	4.ryy	.	.
=107	=107	=107	=107	=107	=107	=107	=107	=107	=107	=107	=107	=107	=107
4.ryy	4.ryy	4.ryy	4.ryy	.	4.ryy	.	4.ryy	.	4.ryy	4.ryy	4.ryy	.	.
=108	=108	=108	=108	=108	=108	=108	=108	=108	=108	=108	=108	=108	=108
!	!	!	!	!	!	!	!	!	!	!	!	!LO:N:vis=00	!LO:N:vis=00
4.ryy	4.ryy	4.ryy	4.ryy	.	4.ryy	.	4.ryy	.	4.ryy	4.ryy	4.ryy	1.r	1.r
=109	=109	=109	=109	=109	=109	=109	=109	=109	=109	=109	=109	=109	=109
4.ryy	4.ryy	4.ryy	4.ryy	.	4.ryy	.	4.ryy	.	4.ryy	4.ryy	4.ryy	.	.
=110	=110	=110	=110	=110	=110	=110	=110	=110	=110	=110	=110	=110	=110
4.ryy	4.ryy	4.ryy	4.ryy	.	4.ryy	.	4.ryy	.	4.ryy	4.ryy	4.ryy	.	.
=111	=111	=111	=111	=111	=111	=111	=111	=111	=111	=111	=111	=111	=111
4.ryy	4.ryy	4.ryy	4.ryy	.	4.ryy	.	4.ryy	.	4.ryy	4.ryy	4.ryy	.	.
=112	=112	=112	=112	=112	=112	=112	=112	=112	=112	=112	=112	=112	=112
!	!	!	!	!	!	!	!	!	!	!	!	!LO:N:vis=00	!LO:N:vis=00
4.ryy	4.ryy	4.ryy	4.ryy	.	4.ryy	.	4.ryy	.	4.ryy	4.ryy	4.ryy	1.r	1.r
=113	=113	=113	=113	=113	=113	=113	=113	=113	=113	=113	=113	=113	=113
4.ryy	4.ryy	4.ryy	4.ryy	.	4.ryy	.	4.ryy	.	4.ryy	4.ryy	4.ryy	.	.
=114	=114	=114	=114	=114	=114	=114	=114	=114	=114	=114	=114	=114	=114
4.ryy	4.ryy	4.ryy	4.ryy	.	4.ryy	.	4.ryy	.	4.ryy	4.ryy	4.ryy	.	.
=115	=115	=115	=115	=115	=115	=115	=115	=115	=115	=115	=115	=115	=115
4.ryy	4.ryy	4.ryy	4.ryy	.	4.ryy	.	4.ryy	.	4.ryy	4.ryy	4.ryy	.	.
!	!	!	!	!	!	!	!	!	!LO:LB:g=original	!	!	!	!
=116||	=116||	=116||	=116||	=116||	=116||	=116||	=116||	=116||	=116||	=116||	=116||	=116||	=116||
*M2/4	*M2/4	*M2/4	*M2/4	*	*M2/4	*	*M2/4	*	*M2/4	*M2/4	*M2/4	*M2/4	*M2/4
!	!LO:TX:a:t=10.	!LO:TX:a:t=10	!	!	!LO:TX:a:t=8	!	!LO:TX:a:t=9	!	!	!LO:TX:a:t=11.	!LO:TX:a:t=11.	!LO:TX:a:t=11.	!LO:TX:a:t=11
!	!LO:N:vis=00	!LO:N:vis=00	!	!	!LO:N:vis=00	!	!LO:N:vis=00	!	!LO:N:vis=00	!LO:N:vis=00	!LO:N:vis=00	!LO:N:vis=00	!LO:N:vis=00
4d\	0r	0r	4d\	Wi-	0r	.	0r	.	0r	0r	0r	0r	0r
4A\	.	.	4A\	-wat	.	.	.	.	.	.	.	.	.
=117	=117	=117	=117	=117	=117	=117	=117	=117	=117	=117	=117	=117	=117
*	*	*	*	*ij	*	*	*	*	*	*	*	*	*
4B\	.	.	4B\	Wi-	.	.	.	.	.	.	.	.	.
4A\	.	.	4A\	-wat	.	.	.	.	.	.	.	.	.
*	*	*	*	*Xij	*	*	*	*	*	*	*	*	*
=118	=118	=118	=118	=118	=118	=118	=118	=118	=118	=118	=118	=118	=118
8G\L	.	.	8G\L	za-	.	.	.	.	.	.	.	.	.
8F#\	.	.	8F#\J	.	.	.	.	.	.	.	.	.	.
8G\	.	.	8G\L	-spie-	.	.	.	.	.	.	.	.	.
8B\J	.	.	8B\J	.	.	.	.	.	.	.	.	.	.
=119	=119	=119	=119	=119	=119	=119	=119	=119	=119	=119	=119	=119	=119
8A\L	.	.	8A\L	-way-	.	.	.	.	.	.	.	.	.
8G\J	.	.	8G\J	.	.	.	.	.	.	.	.	.	.
4F#\	.	.	4F#\	-cie	.	.	.	.	.	.	.	.	.
=120	=120	=120	=120	=120	=120	=120	=120	=120	=120	=120	=120	=120	=120
!	!LO:N:vis=00	!LO:N:vis=00	!	!	!LO:N:vis=00	!	!LO:N:vis=00	!	!LO:N:vis=00	!LO:N:vis=00	!LO:N:vis=00	!LO:N:vis=00	!LO:N:vis=00
8d\L	0r	0r	8d\L	y	1.r	.	0r	.	0r	0r	0r	0r	0r
8c#\	.	.	8c#\J	.	.	.	.	.	.	.	.	.	.
!	!	!	!LO:LB:g=original	!	!	!	!	!	!	!	!	!	!
8B\	.	.	8B\L	we-	.	.	.	.	.	.	.	.	.
8A\J	.	.	8A\J	.	.	.	.	.	.	.	.	.	.
=121	=121	=121	=121	=121	=121	=121	=121	=121	=121	=121	=121	=121	=121
8G\L	.	.	8G\L	-so-	.	.	.	.	.	.	.	.	.
8F#\	.	.	8F#\J	.	.	.	.	.	.	.	.	.	.
8E\	.	.	8E\L	-ło	.	.	.	.	.	.	.	.	.
8D\J	.	.	8D\J	.	.	.	.	.	.	.	.	.	.
=122	=122	=122	=122	=122	=122	=122	=122	=122	=122	=122	=122	=122	=122
4A\	.	.	4A\	wy-	.	.	.	.	.	.	.	.	.
4AA/	.	.	4AA/	-krzy-	.	.	.	.	.	.	.	.	.
=123	=123	=123	=123	=123	=123	=123	=123	=123	=123	=123	=123	=123	=123
!	!	!	!	!	!LO:TX:t=P:problem:brak taktu	!	!	!	!	!	!	!	!
4D\	.	.	4D\	-kai-	2ryy	.	.	.	.	.	.	.	.
4D\	.	.	4D\	-cie	.	.	.	.	.	.	.	.	.
=124	=124	=124	=124	=124	=124	=124	=124	=124	=124	=124	=124	=124	=124
!	!	!	!LO:TX:a:t=3	!	!	!	!	!	!	!	!	!	!
!	!LO:N:vis=0	!LO:N:vis=0	!LO:N:vis=0	!	!	!	!	!	!	!LO:N:vis=0	!LO:N:vis=0	!LO:N:vis=0	!LO:N:vis=0
4D\	1r	1r	1r	.	4dd\	wi-	2r	.	1r	1r	2r	1r	1r
4A\	.	.	.	.	4a\	-wat	.	.	.	.	.	.	.
=125	=125	=125	=125	=125	=125	=125	=125	=125	=125	=125	=125	=125	=125
*	*	*	*	*	*	*ij	*	*	*	*	*	*	*
4D\	.	.	.	.	4ff#\	wi-	4dd\	Wi-	.	.	2r	.	.
!LO:SIC:v:s=4A\	!	!	!	!	!LO:SIC:v:s=4ee\	!	!	!	!	!	!	!	!
4B\	.	.	.	.	4dd\	-wat	4a\	-wat	.	.	.	.	.
*	*	*	*	*	*	*	*	*	*	*	*	*	*
=126	=126	=126	=126	=126	=126	=126	=126	=126	=126	=126	=126	=126	=126
!LO:TX:a:t=1.	!	!	!	!	!	!	!LO:TX:a:t=1.	!	!	!	!	!	!
2r	16dd\LL	16ff#\LL	2r	.	2r	.	2r	.	2r	2r	2r	2r	2r
.	16ee\	16gg\	.	.	.	.	.	.	.	.	.	.	.
.	16ff#\	16aa\	.	.	.	.	.	.	.	.	.	.	.
.	16gg\JJ	16bb\JJ	.	.	.	.	.	.	.	.	.	.	.
.	16ff#\LL	16aa\LL	.	.	.	.	.	.	.	.	.	.	.
.	16ee\	16gg\	.	.	.	.	.	.	.	.	.	.	.
.	16dd\	16ff#\	.	.	.	.	.	.	.	.	.	.	.
.	16cc#\JJ	16ee\JJ	.	.	.	.	.	.	.	.	.	.	.
=127	=127	=127	=127	=127	=127	=127	=127	=127	=127	=127	=127	=127	=127
4D\	4dd\	4ff#\	4D\	Wi-	4dd\	wi-	4ff#\	Wi-	4FF#\	4dd\	4ff#\	4ff#\	4ddd\
!	!	!	!	!	!	!	!LO:SIC:v:s=4ee\	!	!	!	!	!	!
4A\	4cc#\	4ee\	4A\	-wat	4a\	-wat	4dd\	-wat	4DD/	4a/	4ee\	4ee\	4ccc#\
=128	=128	=128	=128	=128	=128	=128	=128	=128	=128	=128	=128	=128	=128
!LO:TX:a:t=1.	!	!	!	!	!	!	!LO:TX:a:t=1.	!	!	!	!LO:TX:a:t=1.	!	!
2r	16dd\LL	16ff#\LL	2r	.	2r	.	2r	.	2r	2r	2r	2r	2r
.	16ee\	16gg\	.	.	.	.	.	.	.	.	.	.	.
.	16ff#\	16aa\	.	.	.	.	.	.	.	.	.	.	.
.	16gg\JJ	16bb\JJ	.	.	.	.	.	.	.	.	.	.	.
.	16ff#\LL	16aa\LL	.	.	.	.	.	.	.	.	.	.	.
.	16ee\	16gg\	.	.	.	.	.	.	.	.	.	.	.
.	16dd\	16ff#\	.	.	.	.	.	.	.	.	.	.	.
.	16cc#\JJ	16ee\JJ	.	.	.	.	.	.	.	.	.	.	.
!LO:LB:g=original	!	!	!	!	!	!	!	!	!	!	!	!	!
=129	=129	=129	=129	=129	=129	=129	=129	=129	=129	=129	=129	=129	=129
4D\	4dd\	4ff#\	4D\	wi-	4dd\	wi-	4ff#\	wi-	4FF#/	4dd\	4ff#\	4ff#\	4ddd\
!	!	!	!LO:TX:a:t=P:problem:ołówkiem wykreślone dwa takty, pod drugim podpisane "wiwat"	!	!	!	!	!	!	!	!	!	!
4A\	4cc#\	4ee\	4A\	-wat	4cc#\	-wat	4ee\	-wat	4DD/	4a/	4ee\	4ee\	4ccc#\
=130	=130	=130	=130	=130	=130	=130	=130	=130	=130	=130	=130	=130	=130
*tremolo	*	*	*	*	*	*	*	*ij	*	*	*	*	*
8D\L	8dd\L	8ff#\L	8D\	wi-	8dd\	wi-	8ff#\	wi-	4r	4r	4r	4r	4r
8D\	16ff#\L	16aa\L	8D\	-wat	8ff#\	-wat	8aa\	-wat	.	.	.	.	.
.	16ee\JJ	16gg\JJ	.	.	.	.	.	.	.	.	.	.	.
*	*	*	*	*ij	*	*	*	*	*	*	*	*	*
8D\	8dd\L	8ff#\L	8D\	wi-	8dd\	wi-	8ff#\	wi-	4FF#\	8dd\L	8ff#\L	8dd\L	8ff#\L
8D\J	8ff#\J	8aa\J	8D\	-wat	8ff#\	-wat	8aa\	-wat	.	8ff#\J	8aa\J	8ff#\J	8aa\J
*	*	*	*	*Xij	*	*Xij	*	*Xij	*	*	*	*	*
!	!LO:LB:g=original	!	!	!	!	!	!	!	!	!	!LO:LB:g=original	!	!
=131	=131	=131	=131	=131	=131	=131	=131	=131	=131	=131	=131	=131	=131
8A\L	8ee\L	8gg\L	8A\	Je-	8cc#\	Je-	8ee\	Je-	4r	4r	4r	4r	4r
8A\	16ee\L	16gg\L	8A\	-zu-	8ee\	-zu-	8gg\	-zu-	.	.	.	.	.
.	16dd\JJ	16ff#\JJ	.	.	.	.	.	.	.	.	.	.	.
8A\	8cc#\L	8ee\L	8A\	-so-	8cc#\	-so-	8ee\	-so-	4DD/	8a\L	8ee\L	8cc#\L	8ee\L
!	!	!	!	!	!	!	!	!	!	!	!LO:SIC:v:s=8gg\J	!	!
8A\J	8ee\J	8gg\J	8A\	-wi	8ee\	-wi	8gg\	-wi	.	8ee\J	8gg#\J	8ee\J	8gg\J
=132	=132	=132	=132	=132	=132	=132	=132	=132	=132	=132	=132	=132	=132
!	!	!	!LO:TX:a:t=P:problem:nieczytelny tekst, pod nim podpisane "narodzonemu"	!	!	!	!	!	!	!	!	!	!
8D\L	8dd\L	8ff#\L	8D\	na-	4dd\	na-	4ff#\	na-	4r	4r	4r	4r	4r
8D\	16dd\L	16ff#\L	8D\	-ro-	.	.	.	.	.	.	.	.	.
.	16cc#\JJ	16ee\JJ	.	.	.	.	.	.	.	.	.	.	.
!	!	!	!	!	!	!	!	!	!	!	!LO:SIC:v:s=8dd\L	!	!
8D\	8b\L	8dd\L	8D\	-dzo-	8a\	-ro-	8dd\	-ro-	4FF#\	8dd\L	8dd#\L	8dd\L	8dd\L
8D\J	8dd\J	8ff#\J	8D\	-ne[[mu]]	8dd\	-dzo-	8ff#\	-dzo-	.	8dd\J	8ff#\J	8dd\J	8ff#\J
*Xtremolo	*	*	*	*	*	*	*	*	*	*	*	*	*
!	!	!	!LO:LB:g=original	!	!	!	!LO:LB:g=original	!	!	!	!	!	!
=133	=133	=133	=133	=133	=133	=133	=133	=133	=133	=133	=133	=133	=133
4r	16cc#\LL	16ee\LL	2AA/	mu	16cc#\LL	-ne-	16ee\LL	-ne-	4r	4r	4r	4r	16ee\LL
.	16b\	16dd\	.	.	16b\	.	16dd\	.	.	.	.	.	16dd\
.	16a\	16cc#\	.	.	16a\	.	16cc#\	.	.	.	.	.	16cc#\
.	16g\JJ	16b\JJ	.	.	16g\JJ	.	16b\JJ	.	.	.	.	.	16b\JJ
4AA/	4a/	4a/	.	.	4a\	-mu	4a\	-mu.	4DD/	4a/	4a/	4a/	4a/
!	!	!LO:LB:g=original	!	!	!	!	!	!	!	!	!	!	!
=134	=134	=134	=134	=134	=134	=134	=134	=134	=134	=134	=134	=134	=134
!	!	!	!	!	!	!	!	!	!	!	!LO:SIC:v:s=4dd\	!	!
8F#\L	8f#/L	8ff#\L	8F#\	na-	8cc#\	na-	8ff#\	na-	4FF#\	4dd\	4dd#\	2a/	2aa\
8G\	8g/	8gg\	8G\	-ro-	8ee\	-ro-	8gg\	-ro-	.	.	.	.	.
!	!	!	!	!	!	!	!	!	!	!	!LO:SIC:v:s=4dd\	!	!
8A\	8a/	8aa\	8A\	-dzo-	8ff#\	-dzo-	8aa\	-dzo-	4FF#\	4dd\	4dd#\	.	.
8G\J	8g/J	8gg\J	8G\	-ne-	8ee\	-ne-	8gg\	-ne-	.	.	.	.	.
=135	=135	=135	=135	=135	=135	=135	=135	=135	=135	=135	=135	=135	=135
!	!	!	!	!	!	!	!	!	!	!	!LO:SIC:v:s=2dd\	!	!
2A\	2a/	2aa\	2A\	-mu	2ff#\	-mu	2aa\	-mu	2FF#\	2dd\	2dd#\	2a/	2aa\
!	!	!	!	!	!	!	!	!	!	!	!	!LO:LB:g=original	!
=136	=136	=136	=136	=136	=136	=136	=136	=136	=136	=136	=136	=136	=136
4F#\	4f#/	4ff#\	4F#\	Je-	4dd\	Je-	4ff#\	Je-	4DD/	4dd\	4ff#\	4f#/	4ff#\
4A\	4a/	4aa\	4A\	-zu-	4ff#\	-zu-	8.aa\	-zu-	4FF#/	4ff#\	4aa\	4a/	4aa\
.	.	.	.	.	.	.	16ryy	.	.	.	.	.	.
=137	=137	=137	=137	=137	=137	=137	=137	=137	=137	=137	=137	=137	=137
!	!	!	!	!	!	!	!	!	!	!	!LO:SIC:v:s=4gg\	!	!
4G\	4g/	4gg\	4G\	-so-	4ee\	-so-	4gg\	-so-	4DD/	4ee\	4gg#\	4g/	4gg\
4E\	4e/	4ee\	4E\	-wi	4cc#\	-wi	4ee\	-wi	4FF#/	4a/	4ee\	4e/	4ee\
=138	=138	=138	=138	=138	=138	=138	=138	=138	=138	=138	=138	=138	=138
4D\	8f#/L	8ff#\L	8D\	na-	8dd\	na-	8ff#\	na-	4DD/	4dd\	8ff#\L	8f#/L	8ff#\L
.	16e/L	16ee\L	16F#\	-ro-	16cc#\	-ro-	16ee\	-ro-	.	.	16ee\L	16e/L	16ee\L
!	!	!	!	!	!	!	!	!	!	!	!LO:SIC:v:s=16dd\JJ	!	!
.	16d/JJ	16dd\JJ	16D\	-dzo-	16b\	-dzo-	16dd\	-dzo-	.	.	16dd#\JJ	16d/JJ	16dd\JJ
4A\	4e/	4ee\	4A\	-ne-	4cc#\	-ne-	4ee\	-ne-	4DD/	4a/	4ee\	4e/	4ee\
!	!	!	!	!	!	!	!	!	!	!	!	!	!LO:LB:g=original
=139	=139	=139	=139	=139	=139	=139	=139	=139	=139	=139	=139	=139	=139
!	!	!	!	!	!	!	!	!	!	!	!LO:SIC:v:s=8dd\L	!	!
4D\	4d/	4dd\	4D\	-mu	4dd\	-mu.	4dd\	-mu.	8DD/L	8f#/L	8dd#\L	4d/	4dd\
!	!	!	!	!	!	!	!	!	!	!	!LO:SIC:v:s=16dd\L	!	!
.	.	.	.	.	.	.	.	.	16DD/L	16f#/L	16dd#\L	.	.
!	!	!	!	!	!	!	!	!	!	!	!LO:SIC:v:s=16dd\JJ	!	!
.	.	.	.	.	.	.	.	.	16DD/JJ	16f#/JJ	16dd#\JJ	.	.
!	!	!	!	!	!	!	!	!	!	!	!LO:SIC:v:s=8dd\L	!	!
4r	4r	4r	4r	.	4r	.	4r	.	8DD/L	8f#/L	8dd#\L	4r	4r
!	!	!	!	!	!	!	!	!	!	!	!LO:SIC:v:s=8dd\J	!	!
.	.	.	.	.	.	.	.	.	8DD/J	8f#/J	8dd#\J	.	.
=140	=140	=140	=140	=140	=140	=140	=140	=140	=140	=140	=140	=140	=140
!LO:TX:a:t=5.	!LO:TX:a:t=5	!LO:TX:a:t=5	!LO:TX:a:t=5	!	!LO:TX:a:t=5	!	!LO:TX:a:t=5	!	!	!	!	!LO:TX:a:t=5	!LO:TX:a:t=5
!LO:N:vis=00	!LO:N:vis=00	!LO:N:vis=00	!LO:N:vis=00	!	!LO:N:vis=00	!	!LO:N:vis=00	!	!	!	!	!LO:N:vis=00	!LO:N:vis=00
0r	0r	0r	0r	.	0r	.	0r	.	8FF#/L	8dd\L	8a/L	0r	0r
.	.	.	.	.	.	.	.	.	16FF#/L	16dd\L	16a/L	.	.
.	.	.	.	.	.	.	.	.	16FF#/JJ	16dd\JJ	16a/JJ	.	.
.	.	.	.	.	.	.	.	.	8FF#/L	8dd\L	8a/L	.	.
.	.	.	.	.	.	.	.	.	8FF#/J	8dd\J	8a/J	.	.
!	!	!	!	!	!	!	!	!	!LO:LB:g=original	!LO:LB:g=original	!	!	!
=141	=141	=141	=141	=141	=141	=141	=141	=141	=141	=141	=141	=141	=141
.	.	.	.	.	.	.	.	.	8DD/L	8a/L	8f#/L	.	.
.	.	.	.	.	.	.	.	.	16DD/L	16a/L	16f#/L	.	.
.	.	.	.	.	.	.	.	.	16DD/JJ	16a/JJ	16f#/JJ	.	.
.	.	.	.	.	.	.	.	.	8DD/L	8a/L	8f#/L	.	.
.	.	.	.	.	.	.	.	.	8DD/J	8a/J	8f#/J	.	.
=142	=142	=142	=142	=142	=142	=142	=142	=142	=142	=142	=142	=142	=142
!	!	!	!	!	!	!	!	!	!	!	!LO:SIC:v:s=8d/L	!	!
.	.	.	.	.	.	.	.	.	8FF#/L	8f#/L	8d#/L	.	.
!	!	!	!	!	!	!	!	!	!	!	!LO:SIC:v:s=16d/L	!	!
.	.	.	.	.	.	.	.	.	16FF#/L	16f#/L	16d#/L	.	.
!	!	!	!	!	!	!	!	!	!	!	!LO:SIC:v:s=16d/JJ	!	!
.	.	.	.	.	.	.	.	.	16FF#/JJ	16f#/JJ	16d#/JJ	.	.
!	!	!	!	!	!	!	!	!	!	!	!LO:SIC:v:s=8d/L	!	!
.	.	.	.	.	.	.	.	.	8FF#/L	8f#/L	8d#/L	.	.
!	!	!	!	!	!	!	!	!	!	!	!LO:SIC:v:s=8d/J	!	!
.	.	.	.	.	.	.	.	.	8FF#/J	8f#/J	8d#/J	.	.
=143	=143	=143	=143	=143	=143	=143	=143	=143	=143	=143	=143	=143	=143
!	!	!	!	!	!	!	!	!	!	!	!LO:SIC:v:s=4d/	!	!
.	.	.	.	.	.	.	.	.	4DD/	4f#/	4d#/	.	.
.	.	.	.	.	.	.	.	.	4r	4r	4r	.	.
=144	=144	=144	=144	=144	=144	=144	=144	=144	=144	=144	=144	=144	=144
!!LO:TX:t=zbędny ostatni takt (1r): fl 1, 2, S 1, 2, B, vl 1,2, b
2r	2r	2r	2r	.	2r	.	2r	.	2ryy	2ryy	2ryy	2r	2r
==	==	==	==	==	==	==	==	==	==	==	==	==	==
*-	*-	*-	*-	*-	*-	*-	*-	*-	*-	*-	*-	*-	*-
!!!system-decoration: [(g1)][(g2)][(g3)][(g4)][(g5)]g6
!!!ENC: Katarzyna Serwa
!!!END: 2021-12-28
!!!ENC: Kamil Watkowski
!!!END: 2020-07-21
!!!YEC: Copyright 2022 Narodowy Instytut Fryderyka Chopina (https://polishscores.org)
!!!YEM: Licence CC BY 4.0 (https://creativecommons.org/licenses/by/4.0)
